X:1
T: Duniquaich
C:Carl Volti
R:Reel
Q: 232
K:G
M:4/4
L:1/8
|:Bd dg e2 ce|dB AG FA Ac|Bd dg e2 ce|dB AG DG G2|
Bd dg e2 ce|dB AG FA Ac|Bd dg e2 ce|dB AG DG G2|
Bd gd bg dB|cB AG FA cd|Bd gd bg dB|cA dc BG G2|
Bd gd bg dB|cB AG FA cd|BG cA dB ec|Bg Af g2 g2:|
